X: 1
T: Hugh Gillespie's
M: 3/4
L: 1/8
R: mazurka
K: Gmaj
|: D>G B2 B2 | G>B d2 d2 | A>B c2 c>e | (3edc B2 B2 |
D>G B2 B2 | G>B d2 d2 | A>B c2 c>A | E>F G2 G2 :|
|: g>f e2 e>g | (3gfe d2 d2 | A>B c2 c>e | (3edc B2 B2 |
g>f e2 e>g | (3gfe d2 d2 | A>B c>B c>A | E>F G2 G2 :|
